X:141
M:2/4
L:1/16
Q:1/4=90
K:F
c2(AB) c2(fe)|dBdg fedc|fgaf d2ga|bgaf fedc|d2AB c2fe|
dBdg fedc|fgaf dbag|fage f4::fagf gedc|gabg afcA|BdgB AcfA|

